X:461
T:Lark in the Morning, The
T:Seamus Ennis' Lark in the Morning
R:jig
D:Peter Carberry & Padraig McGovern: Forgotten Gems
Z:hn-jig-461
M:6/8
L:1/8
K:D
~A3 AdB | AFA D3 | AFA gfe | fdB BAF |
~A3 AdB | AFA D2f | gfe fed | edB BAF :|
|: Adf ~a3 | abf a3 | Adf a2f | gfe fdB |
Adf ~a3 | abf a2f | gfe fed | edB BAF :|
P:variations
|: ~A3 AdB | AFA ~D3 | AFA fge | fdB BAF |
~A3 AdB | AFA DFA | g2e fed | edB BAF :|
|: Adf a2f | abf afd | Adf a2f | geg fdB |
Adf a2f | abf afd | geg fdf | edB BAF :|

